img/header-logo.svg

<svg width="43" height="34" viewBox="0 0 43 34" fill="none" xmlns="http://www.w3.org/2000/svg">
<path d="M11.4449 0C5.05964 0.408946 0.000244141 5.58893 0.000244141 11.9276H6.24598C6.24598 8.96273 8.51399 6.47498 11.4798 6.10011V0H11.4449Z" fill="#2E2E2E"/>
<path d="M13.0845 0V6.10011C16.0154 6.50906 18.2485 8.96273 18.2485 11.9276H24.4943C24.4943 5.58893 19.4349 0.408946 13.0845 0Z" fill="#2E2E2E"/>
<path d="M29.9503 0C23.565 0.408946 18.5056 5.58893 18.5056 11.9276H24.7514C24.7514 8.96273 27.0194 6.47498 29.9852 6.10011V0H29.9503Z" fill="#2E2E2E"/>
<path d="M31.5901 0V6.10011C34.521 6.50906 36.7542 8.96273 36.7542 11.9276H42.9999C42.9999 5.58893 37.9754 0.408946 31.5901 0Z" fill="#2E2E2E"/>
<path d="M20.6563 27.6272C17.5858 26.1618 7.01337 20.5729 6.52487 13.8594H0C0.488494 23.8786 16.7484 32.1597 20.6214 34V27.6272H20.6563Z" fill="#2E2E2E"/>
<path d="M36.4274 13.8594C35.9738 20.5729 25.3666 26.1618 22.296 27.6272V34C26.1691 32.1597 42.4638 23.8786 42.9174 13.8594H36.4274Z" fill="#2E2E2E"/>
</svg>

<svg width="43" height="34" fill="none" xmlns="http://www.w3.org/2000/svg"><path d="M11.445 0C5.06.409 0 5.589 0 11.928h6.246c0-2.965 2.268-5.453 5.234-5.828V0h-.035ZM13.085 0v6.1c2.93.41 5.163 2.863 5.163 5.828h6.246c0-6.34-5.06-11.52-11.41-11.928Z" fill="#2E2E2E"/><path d="M29.95 0c-6.385.409-11.444 5.589-11.444 11.928h6.245c0-2.965 2.268-5.453 5.234-5.828V0h-.035ZM31.59 0v6.1c2.931.41 5.164 2.863 5.164 5.828H43C43 5.588 37.975.408 31.59 0ZM20.656 27.627c-3.07-1.465-13.643-7.054-14.131-13.768H0C.488 23.88 16.748 32.16 20.621 34v-6.373h.035ZM36.427 13.86c-.453 6.713-11.06 12.302-14.131 13.767V34c3.873-1.84 20.168-10.121 20.621-20.14h-6.49Z" fill="#2E2E2E"/></svg>
